X:332
T: Jetzt mu ich in den Krieg (4-31), S. 44
N: P0592V
O: Lothringen
S: PINCK, Louis: Verklingende Weisen Bd 4, Kassel 1939]
R: Kriegslied]
M: 4/4
L: 1/8
K: Eb
EF | G2G2G2FF | E6
GA | B2B2BAA2 | G4
B2BA | GFE2c2ec | B2
ccB2Bc | B2BAG2F2 | E6

@@@ Tune index: 7882
